icons/mobile/24/svg/audio-24.svg

<svg width="24" height="24" viewBox="0 0 24 24" fill="none" xmlns="http://www.w3.org/2000/svg">
<path d="M14.5664 3.46802C14.7484 3.0231 15.2581 2.80647 15.7051 2.99146C19.377 4.4965 21.751 8.03231 21.751 12.0002C21.7509 15.9682 19.378 19.5041 15.7051 21.009C15.5971 21.054 15.485 21.0745 15.375 21.0745C15.0312 21.0745 14.7045 20.8692 14.5664 20.5325C14.3834 20.0865 14.597 19.5748 15.043 19.3928C18.0569 18.1579 20.0038 15.2572 20.0039 12.0002C20.0039 8.74325 18.057 5.84169 15.043 4.60669C14.5971 4.42462 14.3834 3.91396 14.5664 3.46802Z" fill="black"/>
<path d="M7.79102 5.14575C8.92911 3.13401 12 3.94128 12 6.2522V17.7473C11.9997 20.0581 8.92897 20.8647 7.79102 18.8528L6.02148 15.7229C5.8685 15.7269 5.68303 15.7463 5.54004 15.7463C4.93704 15.7463 4.36973 15.7144 3.84473 15.6614C2.78989 15.5553 2.00007 14.647 2 13.5872V10.4075C2 9.36957 2.85285 8.43541 3.88672 8.33325C4.49372 8.27325 5.04904 8.2522 5.54004 8.2522C5.70802 8.2522 5.86438 8.26185 6.02637 8.26685L7.79102 5.14575Z" fill="black"/>
<path d="M14.7861 7.55396C14.9185 7.48908 15.078 7.47853 15.2266 7.552C16.8666 8.368 18 10.0442 18 12.0002C17.9999 13.9561 16.8675 15.6325 15.2266 16.4485C15.0808 16.5205 14.9248 16.5101 14.7939 16.4485C14.6303 16.3943 14.5001 16.2363 14.5 16.0442V7.95825C14.5 7.76881 14.6258 7.61035 14.7861 7.55396Z" fill="black"/>
</svg>

<!-- This Source Code Form is subject to the terms of the Mozilla Public
   - License, v. 2.0. If a copy of the MPL was not distributed with this
   - file, You can obtain one at http://mozilla.org/MPL/2.0/. -->
<svg xmlns="http://www.w3.org/2000/svg" width="24" height="24" fill="none" viewBox="0 0 24 24">
    <path fill="#000" d="M14.566 3.468a.87.87 0 0 1 1.14-.477 9.7 9.7 0 0 1 6.045 9.01 9.7 9.7 0 0 1-6.046 9.008.875.875 0 0 1-1.139-.477.874.874 0 0 1 .477-1.14A7.96 7.96 0 0 0 20.003 12a7.96 7.96 0 0 0-4.96-7.393.873.873 0 0 1-.477-1.139M7.791 5.146C8.929 3.134 12 3.94 12 6.252v11.495c0 2.311-3.071 3.118-4.209 1.106l-1.77-3.13c-.152.004-.338.023-.481.023-.603 0-1.17-.032-1.695-.085C2.79 15.555 2 14.647 2 13.587v-3.18c0-1.037.853-1.972 1.887-2.074.607-.06 1.162-.08 1.653-.08.168 0 .324.009.486.014z" />
    <path fill="#000" d="M14.786 7.554a.5.5 0 0 1 .44-.002C16.867 8.368 18 10.044 18 12s-1.133 3.633-2.773 4.448a.5.5 0 0 1-.433 0 .43.43 0 0 1-.294-.404V7.958c0-.19.126-.348.286-.404" />
</svg>
